X: 34837
T: Roaring Barmaid, The
R: jig
M: 6/8
K: Gmajor
|:G3 EGD|G3 EGD|G3 BGG|dGG B3|
G3 EGD|G3 EGD|G2B deg|deg edB|
G3 EGD|G3 EGD|G3 B3|dBG B3|
G3 EGD|G3 EGD|GAB deg|deg edB||
|:deg b3-|bab deg|b3 age|age deg|
b3 abg|agg bgg|agg egg|deg edB:|

